X:50
T:Helena
C:Colin Hume, 1998
C:Sweet and Graceful
L:1/4
M:2/2
S:Colin Hume's website,  www.colinhume.com  - chords can also be printed below the stave.
Q:1/2=81
H:For Helena Moss on her marriage to Jim Crouch
%%MIDI program 50
%%MIDI gchord czcc
%%MIDI chordprog 50
K:G
P:A
|:"G"G3/2A/ "^/"BG | "Bm"dB "Em"GD | "C"E3/2F/ "^/"GA | "D"D2- "^/"D[F/A/][G/B/] |\
"Am"[A2-c2-] "^/"[Ac][G/B/][A/c/] | "G"[B2-d2-] "^/"[Bd]G |\
"C"[c3/2e3/2][d/f/] "Em"[eg]B |1"D7"A2- "^/"AD :|2 "D7"A2 "G"G2 ||
%%vskip 0
P:B
|: "Am"cB/c/ "D"Ad | "C"cB/c/ "D"AD | "G"G[Bd] "Em"[Bd][A/c/][G/B/] | "A7"[G2B2] "D7"[F2A2] |\
"G"G3/2B/ "G7"dG | "C"[c/e/][B/d/][A/c/][G/B/] "D"[FA]D | "C"Ec "Am"cB/c/ | "D7"A2 "G"G2 :|
